mono-glyphs/trash-w.svg

<svg xmlns="http://www.w3.org/2000/svg" width="1024" height="1024" fill="none" viewBox="0 0 1024 1024">
  <path fill="#fff" d="M992 160c0 7.333-1.417 13.167-4.25 17.5s-6.583 7.583-11.25 9.75-9.833 3.583-15.5 4.25c-5.667.667-11.5 1-17.5 1-3.333 0-6.667-.083-10-.25-3.333-.167-6.333-.25-9-.25l-83 718.5c-2 16-6.667 30.917-14 44.75-7.333 13.833-16.667 25.833-28 36-11.333 10.17-24.333 18.17-39 24-14.667 5.83-30 8.75-46 8.75h-405c-16 0-31.333-2.92-46-8.75-14.667-5.83-27.667-13.83-39-24-11.333-10.167-20.667-22.167-28-36-7.333-13.833-12-28.75-14-44.75L99.5 192h-5l-10 .5h-5c-5.667 0-11.333-.333-17-1s-10.75-2.167-15.25-4.5-8.167-5.667-11-10S32 167 32 160c0-8.667 3.167-16.167 9.5-22.5 6.333-6.333 13.833-9.5 22.5-9.5h291c3.333-18.333 9.917-35.333 19.75-51 9.833-15.667 21.833-29.25 36-40.75C424.917 24.75 440.667 15.833 458 9.5 475.333 3.167 493.333 0 512 0s36.667 3.167 54 9.5 33.083 15.25 47.25 26.75c14.167 11.5 26.167 25.083 36 40.75 9.833 15.667 16.417 32.667 19.75 51h291c8.667 0 16.167 3.167 22.5 9.5 6.333 6.333 9.5 13.833 9.5 22.5Zm-570.5-32h181c-3.333-9.667-8-18.417-14-26.25-6-7.833-13-14.583-21-20.25s-16.667-10-26-13c-9.333-3-19.167-4.5-29.5-4.5-10.333 0-20.167 1.5-29.5 4.5-9.333 3-18 7.333-26 13s-15 12.417-21 20.25-10.667 16.583-14 26.25ZM860 192H164l82 711.5c2 16.667 8.917 30.25 20.75 40.75S292.833 960 309.5 960h405c8 0 15.667-1.417 23-4.25S751.333 949 757 944s10.333-11 14-18 6-14.5 7-22.5L860 192ZM384 736V416c0-8.667 3.167-16.167 9.5-22.5 6.333-6.333 13.833-9.5 22.5-9.5s16.167 3.167 22.5 9.5c6.333 6.333 9.5 13.833 9.5 22.5v320c0 8.667-3.167 16.167-9.5 22.5-6.333 6.333-13.833 9.5-22.5 9.5s-16.167-3.167-22.5-9.5c-6.333-6.333-9.5-13.833-9.5-22.5Zm192 0V416c0-8.667 3.167-16.167 9.5-22.5 6.333-6.333 13.833-9.5 22.5-9.5s16.167 3.167 22.5 9.5c6.333 6.333 9.5 13.833 9.5 22.5v320c0 8.667-3.167 16.167-9.5 22.5-6.333 6.333-13.833 9.5-22.5 9.5s-16.167-3.167-22.5-9.5c-6.333-6.333-9.5-13.833-9.5-22.5Z"/>
</svg>

<svg width="1024" height="1024" viewBox="0 0 1024 1024" fill="none" xmlns="http://www.w3.org/2000/svg">
<g clip-path="url(#clip0_32_163)">
<path d="M992 160C992 167.333 990.583 173.167 987.75 177.5C984.917 181.833 981.167 185.083 976.5 187.25C971.833 189.417 966.667 190.833 961 191.5C955.333 192.167 949.5 192.5 943.5 192.5C940.167 192.5 936.833 192.417 933.5 192.25C930.167 192.083 927.167 192 924.5 192L841.5 910.5C839.5 926.5 834.833 941.417 827.5 955.25C820.167 969.083 810.833 981.083 799.5 991.25C788.167 1001.42 775.167 1009.42 760.5 1015.25C745.833 1021.08 730.5 1024 714.5 1024H309.5C293.5 1024 278.167 1021.08 263.5 1015.25C248.833 1009.42 235.833 1001.42 224.5 991.25C213.167 981.083 203.833 969.083 196.5 955.25C189.167 941.417 184.5 926.5 182.5 910.5L99.5 192C97.8333 192 96.1667 192 94.5 192L84.5 192.5C82.8333 192.5 81.1667 192.5 79.5 192.5C73.8333 192.5 68.1667 192.167 62.5 191.5C56.8333 190.833 51.75 189.333 47.25 187C42.75 184.667 39.0833 181.333 36.25 177C33.4167 172.667 32 167 32 160C32 151.333 35.1667 143.833 41.5 137.5C47.8333 131.167 55.3333 128 64 128H355C358.333 109.667 364.917 92.6667 374.75 77C384.583 61.3334 396.583 47.7501 410.75 36.25C424.917 24.7501 440.667 15.8334 458 9.5C475.333 3.16669 493.333 0 512 0C530.667 0 548.667 3.16669 566 9.5C583.333 15.8334 599.083 24.7501 613.25 36.25C627.417 47.7501 639.417 61.3334 649.25 77C659.083 92.6667 665.667 109.667 669 128H960C968.667 128 976.167 131.167 982.5 137.5C988.833 143.833 992 151.333 992 160ZM421.5 128H602.5C599.167 118.333 594.5 109.583 588.5 101.75C582.5 93.9167 575.5 87.1667 567.5 81.5C559.5 75.8334 550.833 71.5001 541.5 68.5C532.167 65.5001 522.333 64.0001 512 64C501.667 64.0001 491.833 65.5001 482.5 68.5C473.167 71.5001 464.5 75.8334 456.5 81.5C448.5 87.1667 441.5 93.9167 435.5 101.75C429.5 109.583 424.833 118.333 421.5 128ZM860 192H164L246 903.5C248 920.167 254.917 933.75 266.75 944.25C278.583 954.75 292.833 960 309.5 960H714.5C722.5 960 730.167 958.583 737.5 955.75C744.833 952.917 751.333 949 757 944C762.667 939 767.333 933 771 926C774.667 919 777 911.5 778 903.5L860 192ZM384 736V416C384 407.333 387.167 399.833 393.5 393.5C399.833 387.167 407.333 384 416 384C424.667 384 432.167 387.167 438.5 393.5C444.833 399.833 448 407.333 448 416V736C448 744.667 444.833 752.167 438.5 758.5C432.167 764.833 424.667 768 416 768C407.333 768 399.833 764.833 393.5 758.5C387.167 752.167 384 744.667 384 736ZM576 736V416C576 407.333 579.167 399.833 585.5 393.5C591.833 387.167 599.333 384 608 384C616.667 384 624.167 387.167 630.5 393.5C636.833 399.833 640 407.333 640 416V736C640 744.667 636.833 752.167 630.5 758.5C624.167 764.833 616.667 768 608 768C599.333 768 591.833 764.833 585.5 758.5C579.167 752.167 576 744.667 576 736Z" fill="white"/>
</g>
<defs>
<clipPath id="clip0_32_163">
<rect width="1024" height="1024" fill="white"/>
</clipPath>
</defs>
</svg>
